public/img/form-danger.svg

<svg width="24" height="22" viewBox="0 0 24 22" fill="none" xmlns="http://www.w3.org/2000/svg">
<g clip-path="url(#clip0)">
<path d="M24 19.8383C24 20.3989 23.8023 20.8266 23.407 21.1213C23.0117 21.416 22.5265 21.5633 21.9515 21.5633H2.04852C1.4735 21.5633 0.98832 21.4124 0.592992 21.1105C0.197664 20.8086 0 20.3845 0 19.8383C0 19.407 0.12938 18.9686 0.38814 18.5229L10.3288 1.18598C10.8032 0.395328 11.3639 0 12.0108 0C12.6577 0 13.204 0.395328 13.6496 1.18598L23.6119 18.5445C23.8706 19.0045 24 19.4358 24 19.8383ZM13.4987 8.81941V5.67116H10.5013V8.81941C10.5013 9.02067 10.5157 9.21114 10.5445 9.39084C10.5732 9.57053 10.6128 9.77179 10.6631 9.99461C10.7134 10.2174 10.7529 10.4079 10.7817 10.566L11.3423 14.0593H12.6146L13.1968 10.566C13.2255 10.4223 13.2686 10.2354 13.3261 10.0054C13.3836 9.77538 13.4268 9.57053 13.4555 9.39084C13.4843 9.21114 13.4987 9.02067 13.4987 8.81941ZM13.4987 17.1644C13.4987 16.7475 13.3513 16.3953 13.0566 16.1078C12.7619 15.8203 12.4061 15.6766 11.9892 15.6766C11.5867 15.6766 11.2381 15.8203 10.9434 16.1078C10.6487 16.3953 10.5013 16.7475 10.5013 17.1644C10.5013 17.5813 10.6487 17.9371 10.9434 18.2318C11.2381 18.5265 11.5867 18.6739 11.9892 18.6739C12.4061 18.6739 12.7619 18.5265 13.0566 18.2318C13.3513 17.9371 13.4987 17.5813 13.4987 17.1644Z" fill="white"/>
</g>
<defs>
<clipPath id="clip0">
<rect width="24" height="21.5633" fill="white"/>
</clipPath>
</defs>
</svg>

<svg width="24" height="22" fill="none" xmlns="http://www.w3.org/2000/svg"><g clip-path="url(#clip0)"><path d="M24 19.838c0 .56-.198.989-.593 1.283-.395.295-.88.442-1.456.442H2.05c-.575 0-1.06-.15-1.456-.453-.396-.3-.594-.726-.594-1.272 0-.431.13-.87.388-1.315l9.94-17.337C10.804.396 11.365 0 12.012 0s1.193.395 1.639 1.186l9.962 17.358c.259.46.388.892.388 1.294zM13.499 8.82V5.671H10.5V8.82c0 .202.015.392.043.572.03.18.069.38.12.604.05.222.089.413.118.571l.56 3.493h1.273l.582-3.493c.029-.144.072-.33.13-.56.057-.23.1-.435.129-.615.028-.18.043-.37.043-.572zm0 8.345a1.42 1.42 0 00-.442-1.056 1.473 1.473 0 00-1.068-.431c-.402 0-.75.143-1.046.43a1.42 1.42 0 00-.442 1.057c0 .417.148.773.442 1.068a1.43 1.43 0 001.046.442c.417 0 .773-.148 1.068-.442.294-.295.442-.65.442-1.068z" fill="#fff"/></g><defs><clipPath id="clip0"><path fill="#fff" d="M0 0h24v21.563H0z"/></clipPath></defs></svg>
